packages/core/src/svgs/paw.svg

<svg width="24" height="24" viewBox="0 0 24 24" fill="none" xmlns="http://www.w3.org/2000/svg">
<g clip-path="url(#clip0_31_15722)">
<path d="M0 0H24V24H0V0Z" fill="#F0F3FA"/>
<path d="M19.2728 12.3858C19.3284 11.4318 19.1948 10.4762 18.8798 9.57405C18.5648 8.67186 18.0746 7.84082 17.4374 7.12871C16.8002 6.4166 16.0285 5.83747 15.1667 5.4246C14.3049 5.01173 13.3699 4.77326 12.4157 4.72292C8.39568 4.50864 4.95425 7.59435 4.7271 11.6143C4.67156 12.5683 4.80512 13.5239 5.1201 14.4261C5.43509 15.3283 5.92529 16.1593 6.56252 16.8714C7.19976 17.5835 7.97146 18.1627 8.83326 18.5755C9.69507 18.9884 10.63 19.2269 11.5842 19.2772C15.6042 19.4915 19.0457 16.4058 19.2728 12.3858Z" fill="#FD0001"/>
<path d="M18.42 12.3429C18.4691 11.5006 18.3512 10.6569 18.0731 9.86038C17.7949 9.06384 17.3619 8.33018 16.7991 7.70162C16.2363 7.07306 15.5547 6.56202 14.7936 6.19792C14.0324 5.83381 13.2068 5.62383 12.3642 5.58006C10.6592 5.49117 8.98837 6.08103 7.71704 7.22065C6.44571 8.36027 5.67735 9.95692 5.57996 11.6615C5.53138 12.5034 5.64971 13.3467 5.92815 14.1427C6.20659 14.9388 6.63965 15.6719 7.20243 16.3C7.76521 16.9281 8.4466 17.4387 9.20742 17.8026C9.96824 18.1664 10.7935 18.3763 11.6357 18.4201C13.3407 18.5089 15.0116 17.9191 16.2829 16.7795C17.5542 15.6398 18.3226 14.0432 18.42 12.3386V12.3429Z" fill="#FF0F2B"/>
<path d="M18.3343 12.3685C18.3817 11.538 18.2646 10.7062 17.9897 9.92104C17.7149 9.13586 17.2876 8.4127 16.7325 7.79309C16.1774 7.17347 15.5054 6.6696 14.755 6.3104C14.0046 5.9512 13.1907 5.74375 12.36 5.69995C10.6777 5.61223 9.0291 6.19416 7.77465 7.3185C6.52021 8.44284 5.76196 10.0181 5.66568 11.6999C5.61766 12.5308 5.73431 13.363 6.00892 14.1487C6.28353 14.9344 6.71069 15.6581 7.26585 16.2782C7.82101 16.8982 8.49323 17.4025 9.24389 17.762C9.99454 18.1214 10.8088 18.329 11.64 18.3728C13.3223 18.4605 14.9708 17.8786 16.2253 16.7543C17.4797 15.6299 18.238 14.0546 18.3343 12.3728V12.3685ZM12.3643 5.61423C15.9085 5.80281 18.6214 8.82852 18.42 12.3728C18.3237 14.0781 17.5558 15.6759 16.2843 16.8164C15.0129 17.9569 13.3414 18.5474 11.6357 18.4585C10.7931 18.4147 9.96749 18.2048 9.20638 17.8407C8.44526 17.4765 7.76368 16.9655 7.20084 16.337C6.63801 15.7084 6.20505 14.9747 5.92687 14.1782C5.64869 13.3816 5.5308 12.538 5.57997 11.6957C5.67735 9.9911 6.44571 8.39445 7.71704 7.25483C8.98837 6.11521 10.6592 5.52535 12.3643 5.61423Z" fill="black"/>
<path d="M16.2 13.4872C16.5413 13.1221 16.7297 12.6401 16.7266 12.1403C16.7234 11.6404 16.5288 11.1608 16.1829 10.8001C15.9513 10.552 15.6652 10.3613 15.3471 10.243C15.4129 9.93571 15.4028 9.61707 15.3177 9.31463C15.2325 9.01219 15.0749 8.73505 14.8586 8.50724C14.4813 8.10843 13.9665 7.86791 13.4186 7.83438C12.9418 7.81168 12.4725 7.95901 12.0943 8.25009C11.715 7.90616 11.2212 7.71601 10.7092 7.7168C10.1972 7.71759 9.7039 7.90927 9.32571 8.25438C9.09269 8.46737 8.91538 8.73421 8.80929 9.03155C8.7032 9.32889 8.67157 9.6477 8.71714 9.96009C8.30571 10.0887 7.94571 10.333 7.69286 10.6587C7.39644 11.0549 7.25697 11.5468 7.30127 12.0397C7.34557 12.5325 7.57052 12.9916 7.93286 13.3287C8.16857 13.6158 8.36143 13.933 8.50714 14.2715C8.76428 14.9272 9.54857 16.213 11.85 16.273C14.1471 16.423 15.0214 15.2144 15.3171 14.5844C15.5302 14.1614 15.8295 13.7876 16.1957 13.4872H16.2Z" fill="#FD9F01"/>
<path d="M11.07 10.8428C11.5929 10.7143 11.8843 10.11 11.7129 9.48428C11.5457 8.86285 10.9843 8.45571 10.4657 8.58428C9.94289 8.71285 9.65146 9.31285 9.82289 9.93856C9.99003 10.5643 10.5515 10.9671 11.07 10.8386V10.8428ZM9.83146 12.9C10.2815 12.6128 10.3457 11.9486 9.96003 11.4214C9.58717 10.8943 8.91431 10.7014 8.46003 10.9928C8.01431 11.28 7.95431 11.94 8.33146 12.4671C8.7086 12.9943 9.38146 13.1871 9.83146 12.9ZM13.6286 8.71713C14.1515 8.85428 14.4257 9.46285 14.2457 10.08C14.0615 10.6971 13.4915 11.0828 12.9686 10.9457C12.4457 10.8043 12.1715 10.1957 12.3557 9.57856C12.5357 8.96571 13.1057 8.57571 13.6286 8.71713ZM15.5486 12.7757C15.9515 12.2786 15.9257 11.6186 15.4886 11.2971C15.0472 10.98 14.3657 11.1257 13.9629 11.6271C13.56 12.1286 13.5857 12.7843 14.0229 13.1057C14.4643 13.4228 15.1457 13.2771 15.5486 12.7757ZM12.7757 11.8328C12.9145 12.3287 13.198 12.7718 13.59 13.1057C13.6936 13.186 13.7759 13.2906 13.8297 13.4101C13.8835 13.5297 13.9072 13.6606 13.8986 13.7914C13.8986 13.92 13.8686 14.04 13.8086 14.1471C13.711 14.3152 13.5581 14.4442 13.376 14.5122C13.1939 14.5802 12.9939 14.583 12.81 14.52C12.2204 14.3267 11.5894 14.2971 10.9843 14.4343C10.9074 14.4543 10.828 14.463 10.7486 14.46C10.5772 14.4428 10.4057 14.3786 10.2686 14.2714C10.1349 14.1678 10.0362 14.0257 9.98574 13.8643C9.9386 13.7014 9.94289 13.53 9.99431 13.3714C10.05 13.2128 10.1529 13.0714 10.2943 12.9728L10.3243 12.9514L10.3415 12.9428C10.9415 12.5314 11.1472 11.7686 11.1472 11.7686C11.1815 11.58 11.2843 11.4128 11.4386 11.2971C11.5963 11.1786 11.79 11.118 11.9872 11.1257C12.1843 11.1343 12.3729 11.2114 12.5143 11.34C12.66 11.4686 12.7543 11.64 12.7757 11.8286V11.8328Z" fill="#FF8300"/>
<path d="M11.7129 9.48442C11.8843 10.1101 11.5929 10.7144 11.07 10.843C10.9042 10.8753 10.7328 10.8638 10.5727 10.8097C10.4126 10.7556 10.2694 10.6607 10.1572 10.5344C10.59 10.4316 11.2886 10.1059 11.6872 9.39014L11.7129 9.48442ZM10.0157 11.4987C9.71575 12.3473 9.13717 12.6987 8.67432 12.8059C9.04289 13.063 9.49717 13.1144 9.83146 12.9001C10.26 12.6259 10.3372 12.013 10.0157 11.4987ZM15.5743 12.7416C15.0357 12.3908 14.6557 11.8432 14.5157 11.2159C14.31 11.3016 14.1172 11.4387 13.9629 11.6273C13.56 12.1287 13.5857 12.7844 14.0272 13.1059C14.4643 13.423 15.1457 13.2773 15.5486 12.7759L15.5743 12.7416ZM14.0443 10.4916C13.1229 10.2859 12.6129 9.83585 12.3857 9.49299L12.3557 9.57871C12.1715 10.1959 12.45 10.8044 12.9686 10.9459C13.3629 11.0487 13.7829 10.8559 14.0443 10.4916ZM13.2386 14.0059C13.5086 14.0059 13.7357 13.9201 13.8986 13.8259C13.8943 13.9373 13.8643 14.0487 13.8086 14.1473C13.7104 14.3148 13.5575 14.4433 13.3756 14.5112C13.1937 14.5791 12.994 14.5823 12.81 14.5201C12.2204 14.3269 11.5894 14.2973 10.9843 14.4344C10.9074 14.4544 10.828 14.4631 10.7486 14.4601C10.5772 14.443 10.4057 14.3787 10.2729 14.2716C10.1378 14.1684 10.0376 14.0263 9.98574 13.8644C9.94717 13.7359 9.94289 13.6073 9.96432 13.483C10.02 13.6716 10.1872 13.9116 10.59 13.9116C10.8986 13.9116 11.0657 13.8859 11.2329 13.8601C11.4043 13.8387 11.5757 13.813 11.9143 13.813C12.2572 13.813 12.45 13.8644 12.6343 13.9159C12.8057 13.9587 12.9686 14.0059 13.2343 14.0059H13.2386Z" fill="#D55B03"/>
<path fill-rule="evenodd" clip-rule="evenodd" d="M10.4957 8.70428C10.0672 8.80713 9.78859 9.32571 9.94716 9.90428C10.1014 10.4871 10.6072 10.8214 11.04 10.7186C11.4686 10.6157 11.7472 10.0971 11.5886 9.51856C11.4343 8.93571 10.9286 8.60142 10.4957 8.70428ZM11.7129 9.48428C11.8843 10.11 11.5929 10.7143 11.07 10.8428C10.5472 10.9671 9.99001 10.5643 9.82287 9.94285C9.65144 9.31713 9.94287 8.70856 10.4657 8.58428C10.9886 8.45571 11.5457 8.86285 11.7129 9.48428ZM8.43859 12.3986C8.79001 12.8871 9.38573 13.0371 9.76287 12.7971C10.1314 12.5571 10.2129 11.9828 9.85716 11.4943C9.50573 11.0057 8.91001 10.8514 8.53287 11.0957C8.1643 11.3314 8.08716 11.9057 8.43859 12.3943V12.3986ZM9.9643 11.4214C10.3414 11.9486 10.2814 12.6128 9.83573 12.9C9.38144 13.1871 8.70859 12.9943 8.33573 12.4714C7.9543 11.94 8.0143 11.28 8.4643 10.9886C8.9143 10.7014 9.58716 10.8943 9.9643 11.4214ZM13.5043 13.2C13.0932 12.8492 12.7962 12.3836 12.6514 11.8628V11.8457C12.63 11.6914 12.5529 11.5457 12.4286 11.4343C12.3086 11.3271 12.15 11.2586 11.9786 11.2457C11.8072 11.2457 11.6486 11.2928 11.5157 11.3957C11.3872 11.4943 11.3014 11.6357 11.2714 11.79V11.7986L11.1429 11.7686C11.1814 11.58 11.2843 11.4128 11.4386 11.2971C11.5963 11.1786 11.79 11.118 11.9872 11.1257C12.1843 11.1343 12.3729 11.2114 12.5143 11.34C12.66 11.4686 12.7543 11.64 12.7757 11.8286C12.9138 12.3259 13.1973 12.7707 13.59 13.1057C13.7957 13.2728 13.9157 13.53 13.8986 13.7914C13.8986 13.92 13.8686 14.04 13.8086 14.1471C13.711 14.3152 13.5581 14.4442 13.376 14.5122C13.1939 14.5802 12.9939 14.583 12.81 14.52C12.2204 14.3267 11.5894 14.2971 10.9843 14.4343C10.9074 14.4543 10.828 14.463 10.7486 14.46C10.5772 14.4428 10.4057 14.3786 10.2686 14.2714C10.1349 14.1678 10.0362 14.0257 9.98573 13.8643C9.93859 13.7014 9.94287 13.53 9.9943 13.3714C10.05 13.2128 10.1529 13.0714 10.2943 12.9728L10.3243 12.9514L10.3414 12.9428C10.9414 12.5314 11.1472 11.7686 11.1472 11.7686L11.2714 11.7986L11.2672 11.8071C11.2549 11.8506 11.2406 11.8935 11.2243 11.9357C11.1943 12.0171 11.1472 12.1286 11.0829 12.2571C10.9543 12.51 10.74 12.8228 10.4143 13.0457L10.3929 13.0586L10.3672 13.0757C10.2472 13.1614 10.1614 13.2814 10.1143 13.4143C10.0714 13.5471 10.0672 13.6928 10.11 13.8257C10.1529 13.9628 10.2343 14.0828 10.35 14.1728C10.4657 14.2628 10.6072 14.3228 10.7572 14.3357C10.8257 14.3357 10.8857 14.3314 10.95 14.3143C11.5803 14.1693 12.2382 14.199 12.8529 14.4C12.9569 14.4355 13.0676 14.447 13.1767 14.4336C13.2858 14.4203 13.3905 14.3824 13.4829 14.3228C13.5729 14.2628 13.6457 14.1814 13.6972 14.0914M13.6972 14.0914C13.7443 13.9971 13.77 13.8986 13.77 13.7914V13.7871C13.7872 13.5643 13.6843 13.3414 13.5086 13.2M14.1214 10.0457C14.2929 9.47571 14.0272 8.94856 13.5986 8.83713C13.1614 8.72142 12.6472 9.04285 12.4757 9.61285C12.3043 10.1871 12.57 10.71 13.0029 10.8214C13.4357 10.9371 13.9543 10.6157 14.1214 10.0457ZM12.3557 9.57856C12.1714 10.1957 12.4457 10.8043 12.9686 10.9457C13.4914 11.0828 14.0614 10.6971 14.2457 10.08C14.4257 9.46285 14.1514 8.85428 13.6286 8.71713C13.1057 8.57571 12.5357 8.96571 12.3557 9.57856ZM15.45 12.6986C15.8229 12.2357 15.7757 11.6614 15.4114 11.4C15.0429 11.1343 14.4386 11.2414 14.0614 11.7043C13.6886 12.1671 13.74 12.7414 14.1043 13.0028C14.4686 13.2686 15.0772 13.1614 15.45 12.6986ZM15.4886 11.2971C15.9257 11.6143 15.9514 12.2786 15.5486 12.7757C15.1457 13.2728 14.4643 13.4186 14.0229 13.1057C13.5857 12.7886 13.56 12.1286 13.9629 11.6271C14.3657 11.13 15.0472 10.9843 15.4886 11.2971Z" fill="#301409"/>
<path d="M16.4143 13.1957C16.2914 13.3916 16.1363 13.5654 15.9558 13.7099C15.6986 13.9671 15.4801 14.2671 15.3129 14.5842C15.0215 15.2142 14.1472 16.4228 11.8501 16.2728C9.55291 16.2128 8.76434 14.9271 8.5072 14.2714C8.36186 13.9312 8.16846 13.6137 7.93291 13.3285C7.74629 13.1588 7.59358 12.9552 7.48291 12.7285C7.81854 13.0954 8.24174 13.3711 8.71291 13.5299C8.79862 13.5899 9.01291 13.7614 9.15863 13.9757L9.17577 14.0014C9.38148 14.3014 10.1015 15.3728 12.0129 15.3728C13.5815 15.3728 14.4943 14.4428 14.7515 13.9757C14.9246 13.7067 15.1948 13.5148 15.5058 13.4399C15.8129 13.3755 16.1163 13.2939 16.4143 13.1957Z" fill="#B97405"/>
<path d="M7.29858 11.6058C7.49573 11.1687 8.03144 10.5387 9.11573 10.4487C9.07287 9.91295 9.15001 8.76009 9.7843 8.42581C10.5814 8.00152 11.1172 8.26295 11.9272 8.72581C12.3472 8.34009 13.2986 7.91152 14.2414 8.72581C14.4483 8.93054 14.6016 9.18313 14.6875 9.46122C14.7735 9.73931 14.7896 10.0343 14.7343 10.3201C15.2272 10.2858 16.2772 10.7487 16.5343 12.8915L16.6586 12.6172C16.7377 12.2984 16.7353 11.9648 16.6514 11.6472C16.5675 11.3296 16.4049 11.0382 16.1786 10.8001C15.9483 10.5526 15.6637 10.3619 15.3472 10.243C15.4129 9.93571 15.4028 9.61707 15.3177 9.31463C15.2325 9.01218 15.075 8.73505 14.8586 8.50724C14.4813 8.10843 13.9665 7.86791 13.4186 7.83438C12.9418 7.81168 12.4725 7.95901 12.0943 8.25009C11.715 7.90616 11.2212 7.71601 10.7092 7.7168C10.1972 7.71759 9.70391 7.90927 9.32573 8.25438C9.0927 8.46737 8.91539 8.73421 8.80931 9.03155C8.70322 9.32889 8.67158 9.6477 8.71716 9.96009C8.30573 10.0887 7.94573 10.333 7.69287 10.6587C7.47858 10.9372 7.34144 11.263 7.29858 11.6015V11.6058Z" fill="#FDC082"/>
<path d="M15.2014 10.3201L15.2186 10.2172C15.2803 9.92892 15.2708 9.62992 15.1909 9.34614C15.111 9.06235 14.9631 8.80233 14.76 8.58863C14.4068 8.21657 13.9262 7.99157 13.4143 7.95863C12.9674 7.93565 12.5268 8.07236 12.1714 8.34434L12.0857 8.41291L12.0086 8.34006C11.7475 8.10466 11.427 7.9451 11.0818 7.87863C10.7366 7.81216 10.3798 7.8413 10.05 7.96291C9.58196 8.13715 9.19953 8.4858 8.98286 8.93577C8.88358 9.15391 8.83103 9.3904 8.82858 9.63006V9.63434C8.82858 9.7372 8.82858 9.84006 8.84572 9.94291L8.85858 10.0458L8.75572 10.0758C8.37001 10.1958 8.03572 10.4272 7.79572 10.7358C7.51787 11.1071 7.38694 11.5679 7.42807 12.0299C7.4692 12.4918 7.67949 12.9223 8.01858 13.2386L8.02715 13.2472V13.2515C8.2728 13.5453 8.47487 13.8729 8.62715 14.2243C8.75572 14.5415 9.00001 15.0043 9.49715 15.3986C9.98572 15.7886 10.7314 16.1186 11.8543 16.1486H11.8586C12.9814 16.2215 13.7443 15.9601 14.2586 15.6172C14.666 15.3487 14.9921 14.9737 15.2014 14.5329C15.3729 14.1943 15.5957 13.8901 15.8657 13.6243L15.87 13.6201L15.8743 13.6158C16.076 13.4562 16.2425 13.2567 16.3633 13.0297C16.4841 12.8026 16.5567 12.5531 16.5764 12.2967C16.5961 12.0403 16.5626 11.7826 16.4779 11.5398C16.3932 11.297 16.2592 11.0743 16.0843 10.8858C15.8673 10.6516 15.5988 10.4711 15.3 10.3586L15.2014 10.3158V10.3201ZM16.6586 12.6258C16.5491 13.0543 16.3022 13.4352 15.9557 13.7101C15.6986 13.9672 15.48 14.2672 15.3129 14.5843C15.0214 15.2143 14.1471 16.4229 11.85 16.2729C9.54858 16.2129 8.76429 14.9272 8.50715 14.2715C8.36181 13.9313 8.16841 13.6138 7.93286 13.3286C7.56797 12.9931 7.3412 12.5337 7.29682 12.04C7.25245 11.5463 7.39365 11.0538 7.69286 10.6586C7.95547 10.3272 8.31272 10.0835 8.71715 9.96006C8.66988 9.59452 8.72168 9.223 8.86715 8.88434C8.97429 8.64863 9.13286 8.43434 9.32572 8.25434C9.70436 7.91014 10.1975 7.71906 10.7092 7.71826C11.2209 7.71747 11.7146 7.90702 12.0943 8.25006C12.4737 7.95799 12.9447 7.81061 13.4229 7.83434C13.9714 7.87291 14.49 8.11291 14.8543 8.5072C15.0708 8.73416 15.2287 9.01038 15.3146 9.31203C15.4005 9.61368 15.4116 9.9317 15.3471 10.2386C15.6641 10.3588 15.9487 10.551 16.1786 10.8001C16.4055 11.0395 16.5682 11.3325 16.6513 11.6517C16.7345 11.9709 16.7355 12.306 16.6543 12.6258H16.6586Z" fill="#41100A"/>
</g>
<defs>
<clipPath id="clip0_31_15722">
<rect width="24" height="24" fill="white"/>
</clipPath>
</defs>
</svg>

<svg xmlns="http://www.w3.org/2000/svg" width="24" height="24" fill="none" viewBox="0 0 24 24"><g clip-path="url(#a)"><path fill="#F0F3FA" d="M0 0h24v24H0z"/><path fill="#FD0001" d="M19.273 12.386a7.25 7.25 0 0 0-6.857-7.663c-4.02-.214-7.462 2.871-7.689 6.891a7.25 7.25 0 0 0 6.857 7.663c4.02.214 7.462-2.871 7.689-6.891"/><path fill="#FF0F2B" d="M18.42 12.343a6.4 6.4 0 0 0-6.056-6.763 6.46 6.46 0 0 0-6.784 6.082 6.4 6.4 0 0 0 6.056 6.758 6.46 6.46 0 0 0 6.784-6.081z"/><path fill="#000" d="M18.334 12.369A6.317 6.317 0 0 0 12.36 5.7a6.373 6.373 0 0 0-6.694 6 6.317 6.317 0 0 0 5.974 6.673 6.373 6.373 0 0 0 6.694-6zm-5.97-6.755a6.4 6.4 0 0 1 6.056 6.759 6.46 6.46 0 0 1-6.784 6.086 6.4 6.4 0 0 1-6.056-6.763 6.46 6.46 0 0 1 6.784-6.082"/><path fill="#FD9F01" d="M16.2 13.487a1.955 1.955 0 0 0-.017-2.687 2.2 2.2 0 0 0-.836-.557 1.93 1.93 0 0 0-.488-1.736 2.16 2.16 0 0 0-1.44-.673 2 2 0 0 0-1.325.416 2.057 2.057 0 0 0-2.768.004 1.93 1.93 0 0 0-.609 1.706 2.1 2.1 0 0 0-1.024.699 2.006 2.006 0 0 0 .24 2.67c.236.287.428.604.574.942.257.656 1.042 1.942 3.343 2.002 2.297.15 3.171-1.059 3.467-1.689.213-.423.512-.796.879-1.097z"/><path fill="#FF8300" d="M11.07 10.843c.523-.129.814-.733.643-1.359-.167-.621-.729-1.028-1.247-.9-.523.129-.815.729-.643 1.355.167.625.729 1.028 1.247.9zM9.831 12.9c.45-.287.515-.951.129-1.479-.373-.527-1.046-.72-1.5-.428-.446.287-.506.947-.129 1.474.378.527 1.05.72 1.5.433m3.798-4.183c.523.137.797.746.617 1.363-.184.617-.755 1.003-1.277.866-.523-.142-.797-.75-.613-1.367.18-.613.75-1.003 1.273-.862m1.92 4.059c.402-.497.377-1.157-.06-1.479-.442-.317-1.123-.171-1.526.33-.403.502-.377 1.157.06 1.479.441.317 1.123.171 1.526-.33m-2.773-.943c.139.496.422.939.814 1.273a.8.8 0 0 1 .309.685.7.7 0 0 1-.09.356.84.84 0 0 1-.999.373 3.43 3.43 0 0 0-1.826-.086.8.8 0 0 1-.235.026.94.94 0 0 1-.48-.189.83.83 0 0 1-.283-.407.84.84 0 0 1 .008-.493.8.8 0 0 1 .3-.398l.03-.022.018-.008c.6-.412.805-1.174.805-1.174a.76.76 0 0 1 .292-.472.841.841 0 0 1 1.076.043c.145.129.24.3.26.489z"/><path fill="#D55B03" d="M11.713 9.484c.171.626-.12 1.23-.643 1.359a.97.97 0 0 1-.913-.309c.433-.102 1.132-.428 1.53-1.144zM10.016 11.5c-.3.848-.879 1.2-1.342 1.307.369.257.823.308 1.157.094.429-.274.506-.887.185-1.401m5.558 1.243a2.46 2.46 0 0 1-1.058-1.526 1.4 1.4 0 0 0-.553.411c-.403.502-.377 1.157.064 1.479.437.317 1.119.171 1.522-.33zm-1.53-2.25c-.921-.206-1.431-.656-1.658-.999l-.03.086c-.184.617.094 1.225.613 1.367.394.103.814-.09 1.075-.454m-.805 3.514c.27 0 .497-.086.66-.18a.7.7 0 0 1-.09.321.844.844 0 0 1-.999.373 3.43 3.43 0 0 0-1.826-.086.8.8 0 0 1-.235.026.9.9 0 0 1-.476-.188.83.83 0 0 1-.287-.408.8.8 0 0 1-.022-.381c.056.189.223.429.626.429.309 0 .476-.026.643-.052.171-.021.343-.047.681-.047.343 0 .536.051.72.103.172.043.335.09.6.09z"/><path fill="#301409" fill-rule="evenodd" d="M10.496 8.704c-.429.103-.707.622-.549 1.2.154.583.66.917 1.093.815.429-.103.707-.622.549-1.2-.155-.583-.66-.918-1.093-.815m1.217.78c.171.626-.12 1.23-.643 1.359-.523.124-1.08-.279-1.247-.9-.172-.626.12-1.234.643-1.359.523-.128 1.08.279 1.247.9M8.439 12.4c.351.488.947.638 1.324.398.368-.24.45-.814.094-1.303-.351-.488-.947-.643-1.324-.398-.369.235-.446.81-.094 1.298zm1.525-.978c.377.528.317 1.192-.128 1.479-.455.287-1.127.094-1.5-.429-.382-.531-.322-1.191.128-1.482.45-.288 1.123-.095 1.5.432m3.54 1.779a2.7 2.7 0 0 1-.853-1.337v-.017a.68.68 0 0 0-.222-.412.76.76 0 0 0-.45-.188.74.74 0 0 0-.463.15.66.66 0 0 0-.245.394v.009l-.128-.03a.78.78 0 0 1 .296-.472.841.841 0 0 1 1.076.043c.145.129.24.3.26.489.139.497.422.942.815 1.277a.83.83 0 0 1 .309.685.7.7 0 0 1-.09.356.84.84 0 0 1-.999.373 3.43 3.43 0 0 0-1.826-.086.8.8 0 0 1-.235.026.94.94 0 0 1-.48-.189.83.83 0 0 1-.283-.407.84.84 0 0 1 .008-.493.8.8 0 0 1 .3-.398l.03-.022.017-.008c.6-.412.806-1.174.806-1.174l.124.03-.004.008a3.26 3.26 0 0 1-.184.45 2.1 2.1 0 0 1-.669.789l-.021.013-.026.017a.674.674 0 0 0-.257.75.7.7 0 0 0 .24.347c.116.09.257.15.407.163a.7.7 0 0 0 .193-.022 3.56 3.56 0 0 1 1.903.086.73.73 0 0 0 .63-.077.7.7 0 0 0 .214-.232m0 0a.66.66 0 0 0 .073-.3v-.004a.7.7 0 0 0-.261-.587m.612-3.154c.172-.57-.094-1.097-.522-1.209-.438-.116-.952.206-1.123.776-.172.574.094 1.097.527 1.208.433.116.951-.205 1.118-.775m-1.765-.467c-.185.617.09 1.225.613 1.367.522.137 1.092-.249 1.277-.866.18-.617-.095-1.226-.617-1.363-.523-.141-1.093.249-1.273.862m3.094 3.12c.373-.463.326-1.038-.039-1.299-.368-.266-.972-.159-1.35.304-.372.463-.321 1.037.043 1.299.365.266.973.158 1.346-.304m.039-1.402c.437.317.462.982.06 1.479-.403.497-1.085.643-1.526.33-.437-.317-.463-.977-.06-1.479.403-.497 1.084-.643 1.526-.33" clip-rule="evenodd"/><path fill="#B97405" d="M16.414 13.196c-.123.196-.278.37-.458.514a3.7 3.7 0 0 0-.643.874c-.292.63-1.166 1.839-3.463 1.689-2.297-.06-3.086-1.346-3.343-2.002a3.9 3.9 0 0 0-.574-.943 2 2 0 0 1-.45-.6 2.94 2.94 0 0 0 1.23.802c.086.06.3.231.446.446l.017.025c.205.3.925 1.372 2.837 1.372 1.569 0 2.481-.93 2.739-1.397.173-.27.443-.461.754-.536q.46-.097.908-.244"/><path fill="#FDC082" d="M7.299 11.606c.197-.437.732-1.067 1.817-1.157-.043-.536.034-1.689.668-2.023.797-.424 1.333-.163 2.143.3.42-.386 1.372-.814 2.314 0a1.77 1.77 0 0 1 .493 1.594c.493-.034 1.543.429 1.8 2.572l.125-.275a1.96 1.96 0 0 0-.48-1.817 2.2 2.2 0 0 0-.832-.557 1.93 1.93 0 0 0-.488-1.736 2.16 2.16 0 0 0-1.44-.673 2 2 0 0 0-1.325.416 2.057 2.057 0 0 0-2.768.004 1.93 1.93 0 0 0-.609 1.706 2.1 2.1 0 0 0-1.024.699 1.95 1.95 0 0 0-.394.942z"/><path fill="#41100A" d="m15.201 10.32.018-.103a1.81 1.81 0 0 0-.459-1.628 2.04 2.04 0 0 0-1.346-.63 1.9 1.9 0 0 0-1.243.385l-.085.069-.077-.073a1.93 1.93 0 0 0-1.959-.377c-.468.174-.85.523-1.067.973-.1.218-.152.454-.154.694v.004c0 .103 0 .206.017.309l.013.103-.103.03c-.386.12-.72.351-.96.66a1.88 1.88 0 0 0 .223 2.503l.008.008v.005c.246.293.448.62.6.972.129.317.373.78.87 1.175.489.39 1.234.72 2.357.75h.005c1.122.072 1.885-.189 2.4-.532a2.67 2.67 0 0 0 .942-1.084 3.5 3.5 0 0 1 .665-.909l.004-.004.004-.004a1.864 1.864 0 0 0 .21-2.73 2.06 2.06 0 0 0-.784-.527l-.099-.043zm1.458 2.306c-.11.428-.357.81-.703 1.084a3.7 3.7 0 0 0-.643.874c-.292.63-1.166 1.839-3.463 1.689-2.301-.06-3.086-1.346-3.343-2.001a3.9 3.9 0 0 0-.574-.943 1.993 1.993 0 0 1-.24-2.67c.262-.332.62-.575 1.024-.699a2.06 2.06 0 0 1 .15-1.076c.107-.235.266-.45.459-.63a2.06 2.06 0 0 1 2.768-.004c.38-.292.85-.44 1.329-.416a2.16 2.16 0 0 1 1.431.673 1.93 1.93 0 0 1 .493 1.732c.317.12.602.312.832.561a1.95 1.95 0 0 1 .475 1.826z"/></g><defs><clipPath id="a"><path fill="#fff" d="M0 0h24v24H0z"/></clipPath></defs></svg>
